X:1
T:Dreamy Fish Waltz
M:3/4
L:1/4
K:C
|: "C"Gcd | e2a | g3 | Gcd | e2f | "G"d3 | dde | f2c' |
  b3 | aga |1 g2f | "C"e3 :|2 g2B | "C"c3-|c2 z ||
|: "C"g2 g | g2 g | g3/2 a/b/c'/ |    e2 e | e d>c | edc | "G"f3-|f z2 |
   "F"a2 a | a2 a | a2     a/c'/ | "G"b2 a | a g>f | agf | "C"g3 |"G" bag |
   "C"g2 g | g2 g | g3/2 a/b/c'/ |    e2 e | e d>c | edc | "F"a3-|a z2 |
   "F"a2 a | a2 a | a2     a/c'/ | "G"b2 a | a g>f | agB | "C"c3-|c z2 :|
